X:572
%%etbk:tnset id:309,pos:1,rep:3x,ant:
%%etbk:tnset id:376,pos:2,rep:3x,ant:
%%etbk:pldat 2016-05-19T17:59,2016-05-18T15:08,2016-05-17T15:19,2016-05-16T13:54,2016-05-15T15:24,2016-05-14T14:46,2016-05-11T17:18,2016-05-09T18:08,2016-03-11T15:25,2016-03-08T16:06,2016-02-04T18:04,2016-02-03T15:08,2016-02-02T15:33,2016-01-28T18:16,2016-01-26T15:17,2016-01-24T14:42,2016-01-23T14:45,2016-01-20T15:08,2016-01-17T11:07,2015-11-20T15:13,2015-11-19T18:44,2015-11-18T15:10,2015-11-17T16:20,2015-11-15T13:29,2015-11-14T15:45,2015-11-12T19:08,2015-11-10T16:29,2015-11-08T11:15,2015-10-24T14:46,2015-09-10T15:44,2015-09-09T15:59,2015-09-08T18:22,2015-09-03T15:29,2015-09-02T15:32,2015-09-01T15:41,2015-08-31T18:10,2015-08-30T14:04,2015-08-28T19:09,2015-08-27T18:25,2015-08-26T15:19,2015-08-06T16:52,2015-08-05T15:23,2015-08-04T15:42,2015-08-03T17:43,2015-08-02T11:25,2015-08-01T15:17,2015-07-30T18:36,2015-07-25T13:43,2015-07-22T16:19,2015-07-20T18:28,2015-06-26T16:42,2015-06-24T18:44,2015-06-17T15:50,2015-06-16T15:31,2015-05-07T18:24,2015-04-16T18:18,2015-04-15T15:39,2015-04-13T18:21,2015-04-12T10:05,2015-04-11T13:41,2015-04-07T18:37,2015-03-19T18:05,2015-03-18T16:59,2015-03-16T18:30,2015-03-15T14:04,2015-03-11T15:50,2015-03-10T18:33,2015-03-06T16:09,2015-03-05T18:34,2015-03-04T16:00,2015-03-03T18:32,2015-02-22T14:40,2015-02-21T15:49,2015-02-19T18:48,2015-02-18T16:31,2015-02-17T16:50,2015-02-16T18:51,2015-02-14T13:39,2015-02-13T18:57,2015-02-12T19:05,2015-02-11T15:25,2015-02-10T15:43,2015-02-04T15:56,2015-02-03T16:04,2015-02-02T18:46,2015-02-01T14:14,2015-01-31T15:37,2015-01-29T19:05,2015-01-27T16:49,2015-01-25T16:49,2015-01-24T13:06,2015-01-22T18:50,2015-01-21T17:04,2015-01-13T17:05,2015-01-12T18:26,2015-01-08T18:40,2015-01-07T16:17,2015-01-06T18:48,2014-12-29T16:38,2014-12-28T14:14,2014-12-27T14:26,2014-12-26T14:52,2014-12-20T13:39,2014-12-15T15:11,2014-12-13T15:44,2014-12-10T15:16,2014-12-09T16:49,2014-12-03T17:49,2014-12-02T16:44,2014-11-30T14:40,2014-11-26T15:57,2014-11-25T19:04,2014-11-24T15:37,2014-11-22T14:18,2014-11-18T16:06,2014-11-17T18:35,2014-11-15T15:14,2014-11-13T18:40,2014-11-12T18:34,2014-11-10T18:17,2014-10-19T16:13,2014-10-11T14:57,2014-10-09T10:41,2014-10-05T16:55,2014-09-08T18:43,2014-08-28T18:26,2014-08-27T18:33,2014-08-26T16:19,2014-08-24T11:31,2014-08-06T18:33,2014-08-02T16:22,2014-07-26T15:02,2014-07-21T21:02,2014-07-18T10:42,2014-07-14T17:40,2014-07-05T13:52,2014-07-04T11:41,2014-07-02T10:18,2014-06-22T16:50,2014-06-20T16:33,2014-06-19T19:26,2014-06-07T16:24,2014-05-19T18:57,2014-05-11T11:48,2014-05-09T18:07,2014-05-07T17:05,2014-05-06T17:54,2014-04-28T19:41,2014-04-12T12:54,2014-04-11T18:45,2014-04-10T18:42,2014-03-31T18:42
T: The Swallow's Tail
Z: Piano Box Version by Martin Fleischmann
H: Created 2014-03-30 /  Last Modified 2014-10-05
R: reel
M: 4/4
L: 1/8
K: Ador
|:!1!EEE!3!G !1!E!4!AAA | !1!E!4!AFA !3!GGGA | !3!GED!5!B !1!D!3!GGG | !5!(3BAG BD !3!GG FG |
EEEG EAAA | EAFA GGGA | !5!B2GB AGED | EGDB AAAz :|
|:!1!E!4!AAA AGED | !5!B!1!DE!3!F !3!GGGz | !3!GEDB DGGG | (3BAG BD GG FG |
E2AG AGED | BDEF G3 A | !5!B2GB AGED | EGDB AAAz:|
|:!3!e3 !5!g !3!e!1!A AA | !3!eA!3!fA !4!g3 a | !4!ge!1!d!2!B !4!dG GG | !2!BG !2!B!3!d !5!g2 fg |
e3 g eA (3AAA | !3!eA!3!fA !3!g3 a | bggb aged | (3efg dB ABcd :|
|:!2!e!5!aag aged | !2!B!1!d ef ~g3 a | gedB dG GG | BG Bd g2 fg |
eaag aged |(3Bcd ef ~g3 a | bggb aged | (3efg dB ABcd :|


